X:1090
T: Morduant's HP
S: "The Roche Collection of Traditional Irish Music" [III/62/177]
L: 1/8
M: 4/4
R: hornpipe
K: D
AG | FAFA dAFA | GBGB ecAA | ffdf gece | dfdf afdA |
FAFA dAFA | GBGB ecAA | ffdf gece | d2 f2 d2 :|
GA | Bcde fedc | Bcec dcBA | Bcde fedc | B2 e2 B2 z2 |
Bcde fedc | Bcec dcBA | g2 f2 e2 d2 |1 (3cdc (3BcB AF :|2\
(3cdc (3BcB AB ||
